web/special-icons/partner.svg

<svg viewBox="0 0 511.999 511.999" xmlns="http://www.w3.org/2000/svg"><path d="m468.575 52.311h-63.591l-148.984 59.828-148.985-59.828h-63.591c-17.087 0-30.937 13.852-30.937 30.937v379.218c0 17.087 13.852 30.937 30.937 30.937h166.339l26.117-13.49 20.12 13.491 20.119-13.49 26.117 13.49h166.339c17.087 0 30.937-13.851 30.937-30.937v-379.219c.002-17.086-13.85-30.937-30.937-30.937z" fill="#39444d"/><path d="m107.015 52.311v101.912l63.703 204.469 85.282 134.713 83.226-121.356 65.758-319.738z" fill="#eaeaf1"/><path d="m107.015 52.311h-27.146c-6.002 16.215-24.657 58.503-67.384 97.975v93.428a197.087 197.087 0 0 0 25.331 11.108 37.84 37.84 0 0 0 -8.489 13.502c-4.432 12.136-2.433 25.534 5.345 35.841l142.823 189.239h32.267zm297.969 0h27.144c6.002 16.215 24.657 58.503 67.384 97.975v93.428a197.087 197.087 0 0 1 -25.331 11.108 37.84 37.84 0 0 1 8.489 13.502c4.432 12.136 2.433 25.534-5.345 35.841l-142.822 189.24h-32.267z" fill="#2f393b"/><path d="m107.015 52.311s-21.581 78.056-102.406 137.887c-6.12 4.531-6.15 13.662-.057 18.229 17.893 13.41 56.609 35.283 116.847 33.132 0 0-18.843 18.783-59.276 27.998-8.534 1.945-12.166 12.108-6.894 19.094l154.533 204.754h46.238zm297.969 0s21.581 78.056 102.406 137.887c6.12 4.531 6.15 13.662.057 18.229-17.893 13.41-56.609 35.283-116.847 33.132 0 0 18.843 18.783 59.276 27.998 8.534 1.945 12.166 12.108 6.894 19.094l-154.534 204.754h-46.236z" fill="#4d5561"/><path d="m235.88 93.52c-56.48 47.183-109.944 39.472-79.099-22.218-30.846-61.69 22.619-69.402 79.099-22.218zm40.239 0c56.48 47.183 109.944 39.472 79.099-22.218 30.846-61.69-22.62-69.401-79.099-22.218z" fill="#f0484a"/><path d="m264.164 46.075h-16.328c-13.932 0-25.227 11.295-25.227 25.227s11.295 25.227 25.227 25.227h16.328c13.932 0 25.227-11.295 25.227-25.227 0-13.933-11.294-25.227-25.227-25.227z" fill="#fd6064"/><g fill="#39444d"><circle cx="256" cy="171.689" r="13.357"/><circle cx="256" cy="242.586" r="13.357"/><circle cx="256" cy="313.484" r="13.357"/></g></svg>

<svg xmlns="http://www.w3.org/2000/svg" viewBox="0 0 511.999 511.999"><path d="M468.575 52.311h-63.591L256 112.139 107.015 52.311H43.424c-17.087 0-30.937 13.852-30.937 30.937v379.218c0 17.087 13.852 30.937 30.937 30.937h166.339l26.117-13.49L256 493.404l20.119-13.49 26.117 13.49h166.339c17.087 0 30.937-13.851 30.937-30.937V83.248c.002-17.086-13.85-30.937-30.937-30.937z" fill="#39444D"/><path fill="#EAEAF1" d="M107.015 52.311L107.015 154.223 170.718 358.692 256 493.405 339.226 372.049 404.984 52.311z"/><path d="M107.015 52.311H79.869c-6.002 16.215-24.657 58.503-67.384 97.975v93.428a197.087 197.087 0 0 0 25.331 11.108 37.84 37.84 0 0 0-8.489 13.502c-4.432 12.136-2.433 25.534 5.345 35.841l142.823 189.239h32.267L107.015 52.311zm297.969 0h27.144c6.002 16.215 24.657 58.503 67.384 97.975v93.428a197.087 197.087 0 0 1-25.331 11.108 37.84 37.84 0 0 1 8.489 13.502c4.432 12.136 2.433 25.534-5.345 35.841l-142.822 189.24h-32.267L404.984 52.311z" fill="#2F393B"/><path d="M107.015 52.311S85.434 130.367 4.609 190.198c-6.12 4.531-6.15 13.662-.057 18.229 17.893 13.41 56.609 35.283 116.847 33.132 0 0-18.843 18.783-59.276 27.998-8.534 1.945-12.166 12.108-6.894 19.094l154.533 204.754H256L107.015 52.311zm297.969 0s21.581 78.056 102.406 137.887c6.12 4.531 6.15 13.662.057 18.229-17.893 13.41-56.609 35.283-116.847 33.132 0 0 18.843 18.783 59.276 27.998 8.534 1.945 12.166 12.108 6.894 19.094L302.236 493.405H256L404.984 52.311z" fill="#4D5561"/><path d="M235.88 93.52c-56.48 47.183-109.944 39.472-79.099-22.218C125.935 9.612 179.4 1.9 235.88 49.084V93.52zm40.239 0c56.48 47.183 109.944 39.472 79.099-22.218 30.846-61.69-22.62-69.401-79.099-22.218V93.52z" fill="#F0484A"/><path d="M264.164 46.075h-16.328c-13.932 0-25.227 11.295-25.227 25.227s11.295 25.227 25.227 25.227h16.328c13.932 0 25.227-11.295 25.227-25.227 0-13.933-11.294-25.227-25.227-25.227z" fill="#FD6064"/><g fill="#39444D"><circle cx="256" cy="171.689" r="13.357"/><circle cx="256" cy="242.586" r="13.357"/><circle cx="256" cy="313.484" r="13.357"/></g></svg>
